icon_installer/data/icons/scalable/actions/show-raid-symbolic.svg

<?xml version="1.0" encoding="UTF-8"?>
<svg height="16px" viewBox="0 0 16 16" width="16px" xmlns="http://www.w3.org/2000/svg">
    <g fill="#222222">
        <path d="m 3.195312 0 c -1.203124 0 -2.195312 1 -2.195312 2.199219 v 7.601562 c 0 1.199219 0.992188 2.199219 2.195312 2.199219 h 6.609376 c 1.203124 0 2.195312 -1 2.195312 -2.199219 v -7.601562 c 0 -1.199219 -0.992188 -2.199219 -2.195312 -2.199219 z m 0.304688 2 h 6 c 0.277344 0 0.5 0.222656 0.5 0.5 v 7 c 0 0.277344 -0.222656 0.5 -0.5 0.5 h -6 c -0.277344 0 -0.5 -0.222656 -0.5 -0.5 v -7 c 0 -0.277344 0.222656 -0.5 0.5 -0.5 z m 0 0"/>
        <path d="m 13 4 v 9.8125 c 0 0.132812 -0.0625 0.1875 -0.1875 0.1875 h -6.625 c -0.125 0 -0.1875 -0.054688 -0.1875 -0.1875 v -0.8125 h -2 v 0.8125 c 0 1.199219 0.988281 2.1875 2.1875 2.1875 h 6.625 c 1.203125 0 2.1875 -0.988281 2.1875 -2.1875 v -7.625 c 0 -1.136719 -0.886719 -2.089844 -2 -2.1875 z m 0 0"/>
        <path d="m 6.496094 3.003906 c -1.371094 0 -2.515625 1.128906 -2.496094 2.496094 l -0.007812 2.5 h 2.503906 c 1.371094 0 2.496094 -1.125 2.496094 -2.5 c 0 -1.371094 -1.125 -2.496094 -2.496094 -2.496094 z m 0.003906 1.496094 c 0.550781 0 1 0.449219 1 1 s -0.449219 1 -1 1 s -1 -0.449219 -1 -1 s 0.449219 -1 1 -1 z m 0 0"/>
    </g>
</svg>

<svg xmlns="http://www.w3.org/2000/svg" width="16" height="16"><g fill="#222"><path d="M3.195 0C1.992 0 1 1 1 2.2v7.6C1 11 1.992 12 3.195 12h6.61C11.008 12 12 11 12 9.8V2.2C12 1 11.008 0 9.805 0zM3.5 2h6c.277 0 .5.223.5.5v7c0 .277-.223.5-.5.5h-6a.498.498 0 0 1-.5-.5v-7c0-.277.223-.5.5-.5zm0 0"/><path d="M13 4v9.813c0 .132-.063.187-.188.187H6.189C6.063 14 6 13.945 6 13.812V13H4v.813A2.2 2.2 0 0 0 6.188 16h6.625A2.196 2.196 0 0 0 15 13.812V6.189a2.21 2.21 0 0 0-2-2.188zm-6.504-.996C5.125 3.004 3.98 4.133 4 5.5L3.992 8h2.504a2.507 2.507 0 0 0 2.496-2.5 2.506 2.506 0 0 0-2.496-2.496zM6.5 4.5c.55 0 1 .45 1 1s-.45 1-1 1-1-.45-1-1 .45-1 1-1zm0 0"/></g></svg>
